Yaru++/apps/scalable/brackets.svg

<svg height="256" width="256" xmlns="http://www.w3.org/2000/svg" xmlns:xlink="http://www.w3.org/1999/xlink">
  <linearGradient id="linearGradient4358" gradientUnits="userSpaceOnUse" x1="88" x2="488" y1="88" y2="488">
    <stop offset="0" stop-opacity=".588235"/>
    <stop offset="1" stop-opacity=".205556"/>
  </linearGradient>
  <filter id="filter4380" color-interpolation-filters="sRGB" height="1.088" width="1.106" x="-.05" y="-.04">
    <feGaussianBlur stdDeviation="8.48"/>
  </filter>
  <filter id="filter4346" color-interpolation-filters="sRGB" height="1.022" width="1.026" x="-.01" y="-.01">
    <feGaussianBlur stdDeviation="2.12"/>
  </filter>
  <g transform="translate(0 208)">
    <path d="m141.84323 74c-70.59344 0-78.18921 7.250835-77.84323 77.98706v146.01294 146.01294c-.34598 70.73623 7.24979 77.98706 77.84323 77.98706h292.31354c70.59344 0 79.78033-7.27652 77.84323-77.98706v-146.01294-146.01294c0-70.737067-7.24979-77.98706-77.84323-77.98706z" filter="url(#filter4346)" opacity=".1" transform="matrix(.5 0 0 .5 -14.116488 -228.82553)"/>
    <path d="m141.84323 74c-70.59344 0-78.18921 7.250835-77.84323 77.98706v146.01294 146.01294c-.34598 70.73623 7.24979 77.98706 77.84323 77.98706h292.31354c70.59344 0 79.78033-7.27652 77.84323-77.98706v-146.01294-146.01294c0-70.737067-7.24979-77.98706-77.84323-77.98706z" fill="url(#linearGradient4358)" filter="url(#filter4380)" opacity=".3" transform="matrix(.5 0 0 .5 -14.116488 -228.82523)"/>
    <path d="m55.695112-194.82553c-36.09881 0-39.983002 3.69016-39.80608 39.68984v74.310155 74.3101591c-.176922 35.9996899 3.70727 39.6898399 39.80608 39.6898399h148.387318c36.09881 0 40.77464-3.70276 39.80608-39.6898399v-74.3101591-74.310155c0-36.00011-3.70727-39.68984-39.80608-39.68984z" opacity=".1"/>
    <path d="m202.95648-192.82554c35.29673 0 39.09461 3.62542 38.92162 38.99353v73.006465 73.0064791c.17299 35.3681199-3.62489 38.9935299-38.92162 38.9935299h-146.15675c-35.29671 0-38.921609-3.625-38.921609-38.9935299v-73.0064791-73.006465c0-35.36853 3.624899-38.99353 38.921609-38.99353z" fill="#29aae2"/>
    <path d="m17.877654-80.825235v8 65.0058591c0 35.3685299 3.625164 38.9941399 38.921874 38.9941399h146.156252c35.29673 0 39.09486-3.62602 38.92187-38.9941399v-65.0058591-8z" fill="#fff" opacity=".05"/>
    <path d="m56.805392-192.82553c-35.296728 0-39.094869 3.62603-38.921879 38.99414v2c-.17299-35.36811 3.625151-38.99414 38.921879-38.99414h146.156238c35.29673 0 38.92188 3.62561 38.92188 38.99414v-2c0-35.36853-3.62515-38.99414-38.92188-38.99414z" fill="#fff" opacity=".3"/>
    <path d="m56.810792 31.174464c-35.296731 0-39.094874-3.62603-38.921884-38.9941399v-2c-.17299 35.3681099 3.625153 38.9941399 38.921884 38.9941399h146.156238c35.29673 0 38.92188-3.62561 38.92188-38.9941399v2c0 35.3685299-3.62515 38.9941399-38.92188 38.9941399z" opacity=".2"/>
    <path d="m195.12538-180.82314c31.51418 0 34.90507 3.2369 34.75061 34.81482v65.182773 65.182794c.15446 31.577921-3.23643 34.814816-34.75061 34.814816h-130.493967c-31.514164 0-34.750603-3.236529-34.750603-34.814816v-65.182794-65.182773c0-31.57829 3.236439-34.81482 34.750603-34.81482z" fill="#fff"/>
    <path d="m54.880809-157v150h65.000001l.11919-25h-40v-100h40l-.11919-25zm85.000001 0 .11919 25h40v100h-40l-.11919 25h65v-150z" fill="#424242"/>
  </g>
</svg>

<svg xmlns="http://www.w3.org/2000/svg" xmlns:xlink="http://www.w3.org/1999/xlink" width="256" height="256" version="1.1">
 <defs>
  <linearGradient id="linearGradient4773" x1="11.566" x2="15.215" y1="22.292" y2="33.955" gradientTransform="translate(12.128253,-14.362661)" gradientUnits="userSpaceOnUse" xlink:href="#linearGradient8265-821-176-38-919-66-249"/>
  <linearGradient id="linearGradient8265-821-176-38-919-66-249">
   <stop id="stop2687" offset="0" style="stop-color:#ffffff;stop-opacity:0.27450982"/>
   <stop id="stop2689" offset="1" style="stop-color:#ffffff;stop-opacity:0"/>
  </linearGradient>
  <linearGradient id="linearGradient4708" x1="24" x2="33" y1="33.402" y2="33.402" gradientTransform="translate(0,-1.9999996)" gradientUnits="userSpaceOnUse" spreadMethod="reflect" xlink:href="#linearGradient4702"/>
  <linearGradient id="linearGradient4702">
   <stop id="stop4704" offset="0" style="stop-color:#ffffff"/>
   <stop id="stop4706" offset="1" style="stop-color:#ffffff;stop-opacity:0"/>
  </linearGradient>
  <linearGradient id="linearGradient4777" x1="102.308" x2="102.308" y1="-2.393" y2="-24.582" gradientTransform="matrix(0.12747837,0,0,0.81926866,69.892246,33.811851)" gradientUnits="userSpaceOnUse" spreadMethod="reflect" xlink:href="#linearGradient3844-4-1-98"/>
  <linearGradient id="linearGradient3844-4-1-98">
   <stop id="stop3846-6-6-1" offset="0" style="stop-color:#a5a6a8"/>
   <stop id="stop3848-9-0-6" offset="1" style="stop-color:#e8e8e8"/>
  </linearGradient>
  <linearGradient id="linearGradient4779" x1="109.956" x2="109.956" y1="-24.911" y2="-2.376" gradientTransform="matrix(0.12747837,0,0,0.81926866,69.892246,33.811851)" gradientUnits="userSpaceOnUse" xlink:href="#linearGradient2509-9-1-4"/>
  <linearGradient id="linearGradient2509-9-1-4">
   <stop id="stop2511-0-9-7" offset="0" style="stop-color:#b3b3b3"/>
   <stop id="stop2513-3-1-74" offset="1" style="stop-color:#dadada"/>
  </linearGradient>
  <linearGradient id="linearGradient4781" x1="89.018" x2="89.018" y1="22.537" y2="27.546" gradientTransform="matrix(0.27703571,0,0,1.7410302,57.055001,-5.2547316)" gradientUnits="userSpaceOnUse" xlink:href="#linearGradient3858-4-6-8-7"/>
  <linearGradient id="linearGradient3858-4-6-8-7">
   <stop id="stop3860-9-8-5-3" offset="0" style="stop-color:#a0a0a0"/>
   <stop id="stop3862-9-2-3-8" offset="1" style="stop-color:#4a4a4a"/>
  </linearGradient>
  <linearGradient id="linearGradient4681" x1="77.444" x2="77.444" y1="41.185" y2="30.155" gradientTransform="matrix(2.9195982,0,0,2.7200462,-157.64596,-76.984368)" gradientUnits="userSpaceOnUse" xlink:href="#linearGradient3188-6-5"/>
  <linearGradient id="linearGradient3188-6-5">
   <stop id="stop3190-6-58" offset="0" style="stop-color:#4d4d4d"/>
   <stop id="stop3192-6-88" offset="1" style="stop-color:#282828"/>
  </linearGradient>
  <linearGradient id="linearGradient4166" x1="27" x2="27" y1="9" y2="27" gradientUnits="userSpaceOnUse" xlink:href="#linearGradient3642"/>
  <linearGradient id="linearGradient3642">
   <stop id="stop3644" offset="0" style="stop-color:#ffffff"/>
   <stop id="stop3646" offset="1" style="stop-color:#ffffff;stop-opacity:0"/>
  </linearGradient>
  <radialGradient id="radialGradient4025" cx="25" cy="12" r="7.5" fx="25" fy="12" gradientTransform="matrix(0,9.5217056,-4.906667,0,127.62111,-315.64264)" gradientUnits="userSpaceOnUse" xlink:href="#linearGradient3690"/>
  <linearGradient id="linearGradient3690">
   <stop id="stop3692" offset="0" style="stop-color:#ffeb9f"/>
   <stop id="stop3694" offset=".262" style="stop-color:#ffd57e"/>
   <stop id="stop3696" offset=".661" style="stop-color:#ffbc43"/>
   <stop id="stop3698" offset="1" style="stop-color:#ff921a"/>
  </linearGradient>
  <linearGradient id="linearGradient4033" x1="20" x2="20" y1="31.174" y2="8" gradientTransform="translate(0,-0.99999964)" gradientUnits="userSpaceOnUse" xlink:href="#linearGradient3603"/>
  <linearGradient id="linearGradient3603">
   <stop id="stop3605" offset="0" style="stop-color:#a7651c"/>
   <stop id="stop3607" offset="1" style="stop-color:#c8a700"/>
  </linearGradient>
  <linearGradient id="linearGradient4647" x1="21.381" x2="21.381" y1="5.052" y2="44.137" gradientTransform="matrix(0.54285711,0,0,0.36842106,10.97143,25.473684)" gradientUnits="userSpaceOnUse" xlink:href="#linearGradient4649"/>
  <linearGradient id="linearGradient4649">
   <stop id="stop4652" offset="0" style="stop-color:#ffffff"/>
   <stop id="stop4654" offset=".185" style="stop-color:#ffffff;stop-opacity:0.23529412"/>
   <stop id="stop4656" offset=".88" style="stop-color:#ffffff;stop-opacity:0.15686275"/>
   <stop id="stop4658" offset="1" style="stop-color:#ffffff;stop-opacity:0.39215687"/>
  </linearGradient>
  <linearGradient id="linearGradient4190-0" x1="77.444" x2="77.444" y1="41.185" y2="30.155" gradientTransform="matrix(3.2000001,0,0,3.2000001,-179.08112,-134.09731)" gradientUnits="userSpaceOnUse" xlink:href="#linearGradient3188-6"/>
  <linearGradient id="linearGradient3188-6">
   <stop id="stop3190-6" offset="0" style="stop-color:#4d4d4d"/>
   <stop id="stop3192-6" offset="1" style="stop-color:#4d4d4d"/>
  </linearGradient>
  <radialGradient id="radialGradient4267" cx="28.925" cy="22.569" r="11.491" fx="28.925" fy="22.569" gradientTransform="matrix(1.1454014e-7,1.0911469,-3.5984978,3.7774237e-7,146.75381,-38.761306)" gradientUnits="userSpaceOnUse" xlink:href="#linearGradient4660"/>
  <linearGradient id="linearGradient4660">
   <stop id="stop4662" offset="0" style="stop-color:#5e5c64"/>
   <stop id="stop4664" offset="1" style="stop-color:#241f31"/>
  </linearGradient>
  <linearGradient id="linearGradient3421" x1="32.085" x2="32.085" y1="-14.402" y2="-5.563" gradientTransform="matrix(0.6655121,0,0,0.4518781,-54.615029,45.875214)" gradientUnits="userSpaceOnUse" xlink:href="#linearGradient47870"/>
  <linearGradient id="linearGradient47870">
   <stop id="stop47872" offset="0" style="stop-color:#000000;stop-opacity:0"/>
   <stop id="stop47878" offset=".5" style="stop-color:#000000"/>
   <stop id="stop47874" offset="1" style="stop-color:#000000;stop-opacity:0"/>
  </linearGradient>
  <radialGradient id="radialGradient3418" cx="51.438" cy="-12.203" r="2.172" fx="51.438" fy="-12.203" gradientTransform="matrix(1.8417267,-5.1455073e-7,6.2669991e-7,0.9200109,-115.2312,52.586443)" gradientUnits="userSpaceOnUse" xlink:href="#linearGradient51765"/>
  <linearGradient id="linearGradient51765">
   <stop id="stop51767" offset="0" style="stop-color:#000000"/>
   <stop id="stop51769" offset="1" style="stop-color:#000000;stop-opacity:0"/>
  </linearGradient>
  <radialGradient id="radialGradient4142" cx="51.438" cy="-12.203" r="2.172" fx="51.438" fy="-12.203" gradientTransform="matrix(-1.8417267,-5.8450938e-8,-1.2125708e-7,0.9200109,52.236437,52.586419)" gradientUnits="userSpaceOnUse" xlink:href="#linearGradient51765"/>
  <radialGradient id="radialGradient5244" cx="25" cy="12" r="7.5" fx="25" fy="12" gradientTransform="matrix(0,2.9755329,-1.5333334,0,50.911001,-73.192276)" gradientUnits="userSpaceOnUse" xlink:href="#linearGradient3690-9"/>
  <linearGradient id="linearGradient3690-9">
   <stop id="stop3692-0" offset="0" style="stop-color:#ffeb9f"/>
   <stop id="stop3694-0" offset=".262" style="stop-color:#ffd57e"/>
   <stop id="stop3696-74" offset=".661" style="stop-color:#ffbc43"/>
   <stop id="stop3698-1" offset="1" style="stop-color:#ff921a"/>
  </linearGradient>
  <radialGradient id="radialGradient5263" cx="25" cy="12" r="7.5" fx="25" fy="12" gradientTransform="matrix(0,2.9755329,-1.5333334,0,49.838001,-70.656095)" gradientUnits="userSpaceOnUse" xlink:href="#linearGradient3690-9-0"/>
  <linearGradient id="linearGradient3690-9-0">
   <stop id="stop3692-0-0" offset="0" style="stop-color:#ffeb9f"/>
   <stop id="stop3694-0-9" offset=".262" style="stop-color:#ffd57e"/>
   <stop id="stop3696-74-4" offset=".661" style="stop-color:#ffbc43"/>
   <stop id="stop3698-1-2" offset="1" style="stop-color:#ff921a"/>
  </linearGradient>
  <radialGradient id="radialGradient5303" cx="25" cy="12" r="7.5" fx="25" fy="12" gradientTransform="matrix(0,2.9755329,-1.5333334,0,43.400001,-67.388322)" gradientUnits="userSpaceOnUse" xlink:href="#linearGradient3690-9-0-4"/>
  <linearGradient id="linearGradient3690-9-0-4">
   <stop id="stop3692-0-0-8" offset="0" style="stop-color:#ffeb9f"/>
   <stop id="stop3694-0-9-4" offset=".262" style="stop-color:#ffd57e"/>
   <stop id="stop3696-74-4-3" offset=".661" style="stop-color:#ffbc43"/>
   <stop id="stop3698-1-2-4" offset="1" style="stop-color:#ff921a"/>
  </linearGradient>
  <linearGradient id="linearGradient7652-827">
   <stop id="stop3225" offset="0" style="stop-color:#5e5c64"/>
   <stop id="stop3227" offset="1" style="stop-color:#5e5c64;stop-opacity:0"/>
  </linearGradient>
  <linearGradient id="linearGradient7576-259">
   <stop id="stop3231" offset="0" style="stop-color:#3f3f3f"/>
   <stop id="stop3233" offset="1" style="stop-color:#6c6c6c;stop-opacity:0"/>
  </linearGradient>
  <linearGradient id="linearGradient5448" x1="37.625" x2="38.875" y1="40.313" y2="45.063" gradientTransform="matrix(-2.3059252,-0.19289566,0.19289566,-2.3059252,105.59662,57.135264)" gradientUnits="userSpaceOnUse" xlink:href="#linearGradient7652-827"/>
  <linearGradient id="linearGradient5450" x1="38.75" x2="40.125" y1="40.625" y2="46.563" gradientTransform="matrix(-0.72060161,-0.06027989,0.06027989,-0.72060161,36.517347,49.104769)" gradientUnits="userSpaceOnUse" xlink:href="#linearGradient7576-259"/>
  <linearGradient id="linearGradient3089" x1="27" x2="27" y1="9" y2="27" gradientTransform="translate(17.265545,-4.9993632)" gradientUnits="userSpaceOnUse" xlink:href="#linearGradient3642"/>
  <linearGradient id="linearGradient4358" x1="88" x2="488" y1="88" y2="488" gradientUnits="userSpaceOnUse" xlink:href="#linearGradient4360"/>
  <linearGradient id="linearGradient4360">
   <stop id="stop4362" offset="0" style="stop-color:#000000;stop-opacity:0.58823532"/>
   <stop id="stop4366" offset="1" style="stop-color:#000000;stop-opacity:0.20555556"/>
  </linearGradient>
  <filter style="color-interpolation-filters:sRGB" id="filter4380" width="1.106" height="1.088" x="-.05" y="-.04">
   <feGaussianBlur id="feGaussianBlur4382" stdDeviation="8.48"/>
  </filter>
  <filter style="color-interpolation-filters:sRGB" id="filter4346" width="1.026" height="1.022" x="-.01" y="-.01">
   <feGaussianBlur id="feGaussianBlur4348" stdDeviation="2.12"/>
  </filter>
  <linearGradient id="e" x1="43.844" x2="-60" y1="234" y2="234" gradientTransform="matrix(1.0015,0,0,0.99993,72.09,56.015)" gradientUnits="userSpaceOnUse" xlink:href="#b"/>
  <linearGradient id="b">
   <stop id="stop11" offset="0" stop-color="#d5d3cf"/>
   <stop id="stop13" offset=".038" stop-color="#e3e2df"/>
   <stop id="stop15" offset=".077" stop-color="#c0bfbc"/>
   <stop id="stop17" offset=".923" stop-color="#c0bfbc"/>
   <stop id="stop19" offset=".962" stop-color="#e3e2df"/>
   <stop id="stop21" offset="1" stop-color="#d5d3cf"/>
  </linearGradient>
 </defs>
 <g id="layer1" transform="translate(0,208)">
  <path style="opacity:0.1;filter:url(#filter4346)" d="M 141.84323,74 C 71.24979,74 63.65402,81.250835 64,151.98706 V 298 444.01294 C 63.65402,514.74917 71.24979,522 141.84323,522 H 434.15677 C 504.75021,522 513.9371,514.72348 512,444.01294 V 298 151.98706 C 512,81.249993 504.75021,74 434.15677,74 Z" transform="matrix(0.5,0,0,0.5,-14.116488,-228.82553)"/>
  <path d="M 141.84323,74 C 71.24979,74 63.65402,81.250835 64,151.98706 V 298 444.01294 C 63.65402,514.74917 71.24979,522 141.84323,522 H 434.15677 C 504.75021,522 513.9371,514.72348 512,444.01294 V 298 151.98706 C 512,81.249993 504.75021,74 434.15677,74 Z" transform="matrix(0.5,0,0,0.5,-14.116488,-228.82523)" style="opacity:0.3;fill:url(#linearGradient4358);filter:url(#filter4380)"/>
  <path style="opacity:0.1" d="m 55.695112,-194.82553 c -36.09881,0 -39.983002,3.69016 -39.80608,39.68984 v 74.310155 74.3101591 C 15.71211,29.484314 19.596302,33.174464 55.695112,33.174464 H 204.08243 c 36.09881,0 40.77464,-3.70276 39.80608,-39.6898399 V -80.825535 -155.13569 c 0,-36.00011 -3.70727,-39.68984 -39.80608,-39.68984 z"/>
  <path style="fill:#29aae2" d="m 202.95648,-192.82554 c 35.29673,0 39.09461,3.62542 38.92162,38.99353 v 73.006465 73.0064791 C 242.05109,27.549054 238.25321,31.174464 202.95648,31.174464 H 56.79973 c -35.29671,0 -38.921609,-3.625 -38.921609,-38.9935299 V -80.825545 -153.83201 c 0,-35.36853 3.624899,-38.99353 38.921609,-38.99353 z"/>
  <path style="opacity:0.05;fill:#ffffff" d="m 17.877654,-80.825235 v 8 65.0058591 c 0,35.3685299 3.625164,38.9941399 38.921874,38.9941399 H 202.95578 c 35.29673,0 39.09486,-3.62602 38.92187,-38.9941399 v -65.0058591 -8 z"/>
  <path style="opacity:0.3;fill:#ffffff" d="m 56.805392,-192.82553 c -35.296728,0 -39.094869,3.62603 -38.921879,38.99414 v 2 c -0.17299,-35.36811 3.625151,-38.99414 38.921879,-38.99414 H 202.96163 c 35.29673,0 38.92188,3.62561 38.92188,38.99414 v -2 c 0,-35.36853 -3.62515,-38.99414 -38.92188,-38.99414 z"/>
  <path style="opacity:0.2" d="m 56.810792,31.174464 c -35.296731,0 -39.094874,-3.62603 -38.921884,-38.9941399 v -2 C 17.715918,25.548434 21.514061,29.174464 56.810792,29.174464 H 202.96703 c 35.29673,0 38.92188,-3.62561 38.92188,-38.9941399 v 2 c 0,35.3685299 -3.62515,38.9941399 -38.92188,38.9941399 z"/>
  <path d="m 195.12538,-180.82314 c 31.51418,0 34.90507,3.2369 34.75061,34.81482 v 65.182773 65.182794 c 0.15446,31.577921 -3.23643,34.814816 -34.75061,34.814816 H 64.631413 c -31.514164,0 -34.750603,-3.236529 -34.750603,-34.814816 v -65.182794 -65.182773 c 0,-31.57829 3.236439,-34.81482 34.750603,-34.81482 z" style="fill:#ffffff"/>
  <path style="fill:#424242" d="M 54.880809,-157 V -7 H 119.88081 L 120,-32 H 80 v -100 h 40 l -0.11919,-25 z m 85.000001,0 0.11919,25 h 40 v 100 h -40 l -0.11919,25 h 65 v -150 z"/>
 </g>
</svg>
